flaticon/transport/car-key.svg

<svg xmlns="http://www.w3.org/2000/svg" width="32" height="32" viewBox="0 0 24 24">
    <path d="M 23.96875 4.398438 C 23.96875 3.878906 23.808594 3.398438 23.410156 3.039062 C 22.328125 1.960938 20.089844 2 20.007812 2 C 19.980469 2 19.679688 1.996094 19.253906 2.035156 C 19.417969 1.332031 20.054688 0.800781 20.808594 0.800781 C 21.050781 0.800781 21.210938 0.640625 21.210938 0.398438 C 21.210938 0.160156 21.050781 0 20.808594 0 C 19.570312 0 18.539062 0.953125 18.421875 2.164062 C 17.773438 2.304688 17.0625 2.5625 16.570312 3.039062 C 16.210938 3.398438 16.007812 3.878906 16.007812 4.398438 C 16.007812 4.550781 15.996094 5.003906 16.007812 5.609375 C 16.003906 7.492188 14.292969 9.242188 12.246094 9.550781 C 12.261719 9.527344 12.277344 9.503906 12.289062 9.480469 C 12.808594 8.558594 12.96875 7.480469 12.691406 6.441406 C 12.410156 5.398438 11.730469 4.519531 10.808594 4 C 9.851562 3.480469 8.808594 3.320312 7.730469 3.601562 C 6.730469 3.867188 5.878906 4.507812 5.355469 5.371094 C 4.660156 3.460938 2.640625 2 0.410156 2 C 0.167969 2 0.0078125 2.160156 0.0078125 2.398438 C 0.0078125 2.640625 0.167969 2.800781 0.410156 2.800781 C 2.730469 2.800781 4.808594 4.71875 4.808594 6.800781 C 4.808594 6.820312 4.8125 6.839844 4.8125 6.859375 C 4.695312 7.628906 4.804688 8.410156 5.113281 9.109375 L 4.53125 10.078125 C 4.488281 10.199219 4.449219 10.28125 4.488281 10.398438 L 4.691406 11.199219 L 3.449219 12.039062 C 3.371094 12.078125 3.328125 12.160156 3.289062 12.28125 L 2.808594 14.558594 L 1.691406 15.121094 C 1.570312 15.199219 1.449219 15.359375 1.488281 15.519531 L 1.691406 17.28125 L 0.167969 18.480469 C 0.0117188 18.601562 -0.03125 18.800781 0.0507812 18.960938 L 0.851562 20.800781 C 0.890625 20.960938 1.050781 21.039062 1.210938 21.039062 L 3.210938 20.800781 C 3.410156 20.761719 3.570312 20.640625 3.570312 20.480469 L 3.851562 18.558594 L 5.488281 17.878906 C 5.648438 17.800781 5.730469 17.640625 5.730469 17.480469 L 5.648438 16.238281 L 7.410156 14.679688 C 7.488281 14.601562 7.53125 14.519531 7.53125 14.398438 L 7.648438 12.917969 L 8.449219 12.71875 C 8.53125 12.679688 8.648438 12.601562 8.691406 12.519531 L 9.332031 11.445312 C 9.503906 11.425781 9.675781 11.398438 9.851562 11.359375 C 10.503906 11.183594 11.09375 10.851562 11.570312 10.398438 C 11.582031 10.398438 11.597656 10.398438 11.609375 10.398438 C 13.507812 10.398438 15.253906 9.339844 16.160156 7.847656 C 16.320312 9.125 16.644531 10.417969 17.289062 11.078125 C 17.390625 11.195312 17.5 11.289062 17.609375 11.363281 L 17.609375 12.800781 C 17.609375 12.921875 17.648438 13 17.769531 13 L 18.371094 13.601562 L 17.691406 14.960938 C 17.609375 15.078125 17.609375 15.160156 17.648438 15.28125 L 18.371094 17.480469 L 17.691406 18.519531 C 17.570312 18.679688 17.570312 18.878906 17.691406 19 L 18.769531 20.441406 L 18.050781 22.238281 C 17.96875 22.398438 18.007812 22.601562 18.167969 22.71875 L 19.769531 23.921875 C 19.851562 23.960938 19.929688 24 20.007812 24 C 20.089844 24 20.167969 23.960938 20.289062 24 L 21.890625 22.800781 C 22.007812 22.679688 22.089844 22.480469 22.007812 22.320312 L 21.289062 20.519531 L 22.371094 19.082031 C 22.449219 18.921875 22.449219 18.761719 22.371094 18.601562 L 21.691406 17.558594 L 22.410156 15.359375 C 22.410156 15.238281 22.410156 15.121094 22.371094 15.039062 L 21.691406 13.679688 L 22.289062 13.082031 C 22.371094 13 22.410156 12.921875 22.410156 12.800781 L 22.410156 11.355469 C 22.511719 11.28125 22.605469 11.191406 22.691406 11.082031 C 24.128906 9.601562 24.007812 4.921875 23.96875 4.398438 Z M 7.96875 11.960938 L 7.050781 12.199219 C 6.890625 12.238281 6.769531 12.398438 6.769531 12.558594 L 6.691406 14.160156 L 4.929688 15.71875 C 4.851562 15.800781 4.808594 15.921875 4.808594 16.039062 L 4.890625 17.199219 L 3.328125 17.878906 C 3.210938 17.960938 3.089844 18.078125 3.089844 18.199219 L 2.808594 20.039062 L 1.449219 20.199219 L 0.890625 18.921875 L 2.328125 17.800781 C 2.449219 17.71875 2.488281 17.558594 2.488281 17.441406 L 2.289062 15.71875 L 3.328125 15.199219 C 3.410156 15.160156 3.488281 15.039062 3.53125 14.921875 L 4.007812 12.601562 L 5.289062 11.71875 C 5.410156 11.640625 5.488281 11.441406 5.449219 11.28125 L 5.210938 10.359375 L 5.488281 9.878906 C 5.75 10.234375 6.058594 10.539062 6.421875 10.789062 L 4.050781 14.878906 C 3.96875 15.078125 4.007812 15.320312 4.210938 15.441406 C 4.289062 15.480469 4.328125 15.480469 4.410156 15.480469 C 4.53125 15.480469 4.648438 15.441406 4.769531 15.320312 L 7.148438 11.1875 C 7.496094 11.332031 7.863281 11.425781 8.25 11.480469 Z M 9.609375 10.558594 C 8.859375 10.773438 8.109375 10.699219 7.417969 10.371094 C 7.375 10.347656 7.332031 10.324219 7.289062 10.300781 C 7.265625 10.277344 7.238281 10.257812 7.210938 10.238281 C 7.191406 10.230469 7.171875 10.226562 7.148438 10.21875 C 6.636719 9.902344 6.234375 9.445312 5.96875 8.921875 C 5.9375 8.855469 5.898438 8.804688 5.855469 8.765625 C 5.457031 7.867188 5.480469 6.792969 6.007812 5.878906 C 6.449219 5.121094 7.128906 4.601562 7.96875 4.359375 C 8.808594 4.121094 9.648438 4.238281 10.410156 4.679688 C 11.128906 5.121094 11.648438 5.800781 11.890625 6.640625 C 12.128906 7.480469 12.007812 8.320312 11.570312 9.082031 C 11.128906 9.800781 10.449219 10.320312 9.609375 10.558594 Z M 21.648438 11.601562 L 21.648438 12.640625 L 20.96875 13.320312 C 20.851562 13.480469 20.808594 13.640625 20.890625 13.800781 L 21.609375 15.238281 L 20.851562 17.480469 C 20.808594 17.601562 20.808594 17.71875 20.890625 17.839844 L 21.53125 18.800781 L 20.488281 20.160156 C 20.410156 20.28125 20.410156 20.441406 20.449219 20.558594 L 21.128906 22.28125 L 20.007812 23.121094 L 18.890625 22.28125 L 19.570312 20.558594 C 19.648438 20.398438 19.609375 20.28125 19.53125 20.160156 L 18.488281 18.800781 L 19.210938 17.839844 C 19.289062 17.71875 19.289062 17.601562 19.25 17.480469 L 18.488281 15.238281 L 19.210938 13.800781 C 19.289062 13.640625 19.25 13.441406 19.128906 13.320312 L 18.449219 12.640625 L 18.449219 11.601562 L 19.609375 11.601562 L 19.609375 16.398438 C 19.609375 16.640625 19.769531 16.800781 20.007812 16.800781 C 20.25 16.800781 20.410156 16.640625 20.410156 16.398438 L 20.410156 11.601562 Z M 22.167969 10.519531 C 21.96875 10.679688 21.808594 10.761719 21.609375 10.761719 L 18.410156 10.761719 C 18.210938 10.761719 18.007812 10.679688 17.851562 10.519531 C 16.851562 9.441406 16.769531 5.761719 16.808594 4.398438 C 16.808594 4.078125 16.929688 3.800781 17.167969 3.601562 C 17.851562 2.921875 19.371094 2.800781 19.96875 2.800781 C 19.96875 2.800781 20.007812 2.800781 20.050781 2.800781 C 20.609375 2.800781 22.210938 2.921875 22.890625 3.601562 C 23.089844 3.800781 23.210938 4.078125 23.210938 4.398438 C 23.289062 5.71875 23.210938 9.441406 22.167969 10.519531 Z M 22.167969 10.519531"/>
    <path d="M21.128906 4L18.929688 4C18.410156 4 18.007812 4.398438 18.007812 4.921875L18.007812 5.519531C18.007812 6 18.410156 6.398438 18.929688 6.398438L21.128906 6.398438C21.609375 6.398438 22.007812 6 22.007812 5.480469L22.007812 4.878906C22.007812 4.398438 21.609375 4 21.128906 4zM21.210938 5.480469C21.210938 5.519531 21.167969 5.558594 21.128906 5.558594L18.929688 5.558594C18.890625 5.558594 18.851562 5.519531 18.851562 5.480469L18.851562 4.878906C18.851562 4.839844 18.890625 4.800781 18.929688 4.800781L21.128906 4.800781C21.167969 4.800781 21.210938 4.839844 21.210938 4.878906zM10.808594 6.320312L8.890625 5.199219C8.449219 4.960938 7.890625 5.078125 7.648438 5.519531L7.328125 6.039062C7.210938 6.238281 7.167969 6.480469 7.25 6.71875 7.289062 6.960938 7.449219 7.160156 7.648438 7.28125L9.570312 8.359375C9.691406 8.441406 9.847656 8.480469 10.007812 8.480469 10.289062 8.480469 10.609375 8.320312 10.808594 8.078125L11.128906 7.558594C11.371094 7.121094 11.25 6.558594 10.808594 6.320312zM10.371094 7.160156L10.089844 7.679688C10.089844 7.71875 10.007812 7.761719 9.96875 7.71875L8.050781 6.601562C8.007812 6.558594 8.007812 6.519531 8.007812 6.519531 8.007812 6.480469 8.007812 6.480469 8.007812 6.441406L8.328125 5.921875C8.328125 5.878906 8.371094 5.878906 8.410156 5.878906 8.410156 5.878906 8.410156 5.878906 8.410156 5.960938L10.328125 7.039062C10.371094 7.039062 10.410156 7.121094 10.371094 7.160156zM10.371094 7.160156"/>
</svg>

<svg xmlns="http://www.w3.org/2000/svg" width="32" height="32" viewBox="0 0 24 24">
    <path d="M23.969 4.398c0-.52-.16-1-.559-1.359C22.328 1.961 20.09 2 20.008 2c-.028 0-.328-.004-.754.035.164-.703.8-1.234 1.555-1.234.242 0 .402-.16.402-.403 0-.238-.16-.398-.402-.398-1.239 0-2.27.953-2.387 2.164-.649.14-1.36.398-1.852.875-.36.36-.562.84-.562 1.36 0 .152-.012.605 0 1.21-.004 1.883-1.715 3.633-3.762 3.942a4.04 4.04 0 0 0 .445-3.11A3.986 3.986 0 0 0 10.81 4c-.957-.52-2-.68-3.079-.398a3.97 3.97 0 0 0-2.375 1.77C4.66 3.46 2.641 2 .41 2c-.242 0-.402.16-.402.398 0 .243.16.403.402.403 2.32 0 4.399 1.918 4.399 4 0 .02.003.039.003.058-.117.77-.007 1.551.301 2.25l-.582.97c-.043.12-.082.202-.043.32l.203.8-1.242.84c-.078.04-.12.121-.16.242l-.48 2.278-1.118.562c-.12.078-.242.238-.203.399l.203 1.761-1.523 1.2a.384.384 0 0 0-.117.48l.8 1.84c.04.16.2.238.36.238l2-.238c.2-.04.36-.16.36-.32l.28-1.922 1.637-.68a.437.437 0 0 0 .242-.399l-.082-1.242L7.41 14.68a.369.369 0 0 0 .121-.282l.117-1.48.801-.2c.082-.038.2-.116.242-.198l.641-1.075c.172-.02.344-.047.52-.086a4.004 4.004 0 0 0 1.718-.96h.04c1.898 0 3.644-1.06 4.55-2.551.16 1.277.485 2.57 1.13 3.23.1.117.21.211.32.285v1.438c0 .12.038.199.16.199l.601.602-.68 1.359c-.082.117-.082.2-.043.32l.723 2.2-.68 1.039c-.12.16-.12.359 0 .48l1.079 1.441-.72 1.797a.378.378 0 0 0 .118.48l1.602 1.204c.082.039.16.078.238.078.082 0 .16-.04.281 0l1.602-1.2c.117-.12.199-.32.117-.48l-.719-1.8 1.082-1.438a.522.522 0 0 0 0-.48l-.68-1.043.72-2.2c0-.12 0-.238-.04-.32l-.68-1.36.598-.597a.361.361 0 0 0 .121-.281v-1.446c.102-.074.195-.164.281-.273 1.438-1.48 1.317-6.16 1.278-6.684zm-16 7.563l-.918.238c-.16.04-.281.2-.281.36L6.69 14.16 4.93 15.72a.473.473 0 0 0-.121.32l.082 1.16-1.563.68c-.117.082-.238.2-.238.32l-.281 1.84-1.36.16-.558-1.277L2.328 17.8c.121-.082.16-.242.16-.36L2.29 15.72l1.04-.52c.081-.039.16-.16.202-.277l.477-2.32 1.281-.883c.121-.078.2-.278.16-.438l-.238-.922.277-.48c.262.355.57.66.934.91L4.05 14.88c-.082.2-.043.441.16.562.078.04.117.04.2.04.12 0 .237-.04.359-.16l2.378-4.133c.348.144.715.238 1.102.292zm1.64-1.402c-.75.214-1.5.14-2.191-.188l-.129-.07a.609.609 0 0 0-.078-.063c-.02-.008-.04-.011-.063-.02a3.248 3.248 0 0 1-1.18-1.296.49.49 0 0 0-.113-.156 3.188 3.188 0 0 1 .153-2.887 3.27 3.27 0 0 1 1.96-1.52c.84-.238 1.68-.12 2.442.32a3.36 3.36 0 0 1 1.48 1.962c.239.84.118 1.68-.32 2.441a3.338 3.338 0 0 1-1.96 1.477zm12.04 1.043v1.039l-.68.68c-.117.16-.16.32-.078.48l.718 1.437-.757 2.242a.374.374 0 0 0 .039.36l.64.96-1.043 1.36a.481.481 0 0 0-.039.399l.68 1.722-1.121.84-1.117-.84.68-1.722c.077-.16.038-.278-.04-.399l-1.043-1.36.723-.96a.396.396 0 0 0 .039-.36l-.762-2.242.723-1.437a.428.428 0 0 0-.082-.48l-.68-.68V11.6h1.16v4.797c0 .243.16.403.399.403.242 0 .402-.16.402-.403v-4.796zm.519-1.082c-.2.16-.36.242-.559.242H18.41a.783.783 0 0 1-.558-.242c-1-1.079-1.082-4.758-1.043-6.122 0-.32.12-.597.359-.796.684-.68 2.203-.801 2.8-.801h.083c.558 0 2.16.12 2.84.8.199.2.32.477.32.797.078 1.32 0 5.043-1.043 6.122zm0 0"/>
    <path d="M21.129 4h-2.2a.907.907 0 0 0-.921.922v.598c0 .48.402.878.922.878h2.199c.48 0 .879-.398.879-.918V4.88a.885.885 0 0 0-.88-.879zm.082 1.48c0 .04-.043.079-.082.079h-2.2a.084.084 0 0 1-.077-.079V4.88c0-.04.039-.078.078-.078h2.199c.039 0 .082.039.082.078zm0 0M10.809 6.32L8.89 5.2c-.442-.24-1-.122-1.243.32l-.32.52a.809.809 0 0 0-.078.679c.04.242.2.441.398.562L9.57 8.36a.784.784 0 0 0 .438.121c.281 0 .601-.16.8-.402l.32-.52c.243-.437.122-1-.32-1.238zm-.438.84l-.281.52c0 .039-.082.082-.121.039L8.05 6.602c-.043-.043-.043-.082-.043-.082V6.44l.32-.52c0-.042.043-.042.082-.042v.082l1.918 1.078c.043 0 .082.082.043.121zm0 0"/>
</svg>
